Quickit/src/img/logo.svg

<svg width="116" height="32" viewBox="0 0 116 32" fill="none" xmlns="http://www.w3.org/2000/svg">
<path fill-rule="evenodd" clip-rule="evenodd" d="M20.7479 7.29789C21.4731 8.12758 21.3921 9.39129 20.5669 10.1204L16.1757 14.0006L20.2711 15.1039C20.9797 15.2948 21.5263 15.8623 21.6932 16.5806C21.8602 17.2988 21.6204 18.0511 21.0694 18.538L13.8863 24.8851C13.0611 25.6142 11.8042 25.5327 11.079 24.703C10.3538 23.8733 10.4349 22.6096 11.2601 21.8805L15.6513 18.0004L11.5558 16.897C10.8472 16.7061 10.3006 16.1386 10.1337 15.4204C9.96674 14.7021 10.2065 13.9498 10.7576 13.4629L17.9406 7.11585C18.7658 6.38669 20.0227 6.46819 20.7479 7.29789Z" fill="#205BF1"/>
<path d="M45.4553 25.252L43.856 23.404C43.1319 23.9 42.3521 24.288 41.5167 24.568C40.6812 24.848 39.8219 24.988 38.9387 24.988C37.8009 24.988 36.7665 24.764 35.8356 24.316C34.9047 23.8601 34.1169 23.236 33.4725 22.444C32.828 21.644 32.3665 20.716 32.088 19.66C31.8095 18.604 31.7538 17.476 31.9209 16.276C32.088 15.076 32.458 13.952 33.0309 12.904C33.6037 11.848 34.3238 10.92 35.1911 10.12C36.0584 9.32005 37.0211 8.69605 38.0794 8.24805C39.1376 7.79205 40.2357 7.56405 41.3735 7.56405C42.5113 7.56405 43.5417 7.79205 44.4647 8.24805C45.3956 8.69605 46.1833 9.32005 46.8278 10.12C47.4723 10.92 47.9338 11.848 48.2123 12.904C48.4908 13.952 48.5465 15.076 48.3794 16.276C48.2521 17.212 47.9935 18.104 47.6036 18.952C47.2217 19.792 46.7443 20.568 46.1714 21.28L47.8065 23.188L45.4553 25.252ZM39.3445 22.06C39.806 22.06 40.2675 21.992 40.729 21.856C41.1984 21.712 41.636 21.512 42.0418 21.256L40.7409 19.732L43.0921 17.656L44.3095 19.096C44.6198 18.68 44.8744 18.232 45.0733 17.752C45.2723 17.272 45.4036 16.78 45.4672 16.276C45.5786 15.476 45.5428 14.728 45.3598 14.032C45.1847 13.336 44.8903 12.724 44.4766 12.196C44.0628 11.66 43.5536 11.244 42.9489 10.948C42.3521 10.644 41.6917 10.492 40.9677 10.492C40.2277 10.492 39.5156 10.644 38.8313 10.948C38.147 11.252 37.5224 11.672 36.9575 12.208C36.4005 12.736 35.9311 13.348 35.5492 14.044C35.1752 14.74 34.9365 15.484 34.8331 16.276C34.7217 17.068 34.7535 17.816 34.9285 18.52C35.1115 19.216 35.4099 19.832 35.8237 20.368C36.2374 20.896 36.7427 21.312 37.3394 21.616C37.9441 21.912 38.6125 22.06 39.3445 22.06Z" fill="url(#paint0_linear_25_1122)"/>
<path d="M49.7521 20.308L50.8024 12.748H53.7145L52.7597 19.54C52.704 20.012 52.7637 20.444 52.9387 20.836C53.1138 21.22 53.3764 21.528 53.7265 21.76C54.0845 21.984 54.4943 22.096 54.9558 22.096C55.4252 22.096 55.8668 21.984 56.2806 21.76C56.7023 21.528 57.0524 21.22 57.3309 20.836C57.6173 20.444 57.7923 20.012 57.856 19.54L58.8108 12.748H61.723L60.064 24.748H57.1518L57.2831 23.656C56.8137 24.088 56.2766 24.432 55.6719 24.688C55.0751 24.936 54.4545 25.06 53.81 25.06C52.9427 25.06 52.1789 24.848 51.5185 24.424C50.866 23.9921 50.3767 23.42 50.0505 22.708C49.7322 21.988 49.6327 21.188 49.7521 20.308Z" fill="url(#paint1_linear_25_1122)"/>
<path d="M64.124 12.748H67.0361L65.3652 24.748H62.4531L64.124 12.748ZM65.8187 11.2C65.3891 11.2 65.0469 11.06 64.7923 10.78C64.5377 10.492 64.4422 10.132 64.5059 9.70005C64.5695 9.27605 64.7645 8.92005 65.0907 8.63205C65.4249 8.34405 65.8068 8.20005 66.2365 8.20005C66.6502 8.20005 66.9804 8.34405 67.2271 8.63205C67.4817 8.92005 67.5812 9.27605 67.5255 9.70005C67.4618 10.132 67.2669 10.492 66.9406 10.78C66.6224 11.06 66.2484 11.2 65.8187 11.2Z" fill="url(#paint2_linear_25_1122)"/>
<path d="M75.8673 21.136L78.2782 22.564C77.6258 23.316 76.854 23.92 75.9628 24.376C75.0717 24.832 74.1367 25.06 73.1581 25.06C72.06 25.06 71.0973 24.776 70.2698 24.208C69.4502 23.64 68.8376 22.88 68.4318 21.928C68.0339 20.968 67.9146 19.908 68.0737 18.748C68.1931 17.868 68.4596 17.048 68.8734 16.288C69.2951 15.52 69.8202 14.848 70.4488 14.272C71.0774 13.688 71.7736 13.232 72.5374 12.904C73.3092 12.576 74.1049 12.412 74.9245 12.412C75.9031 12.412 76.7744 12.64 77.5382 13.096C78.31 13.552 78.9148 14.164 79.3524 14.932L76.5238 16.348C76.2851 16.028 75.9907 15.78 75.6406 15.604C75.2905 15.428 74.9165 15.34 74.5187 15.34C73.9378 15.34 73.3968 15.5 72.8955 15.82C72.3942 16.132 71.9725 16.548 71.6304 17.068C71.2882 17.58 71.0734 18.14 70.9859 18.748C70.9063 19.348 70.962 19.908 71.153 20.428C71.3519 20.94 71.6582 21.352 72.072 21.664C72.4937 21.976 72.991 22.132 73.5639 22.132C73.9776 22.132 74.3834 22.044 74.7812 21.868C75.187 21.684 75.5491 21.44 75.8673 21.136Z" fill="url(#paint3_linear_25_1122)"/>
<path d="M90.4195 24.748H87.0658L85.001 20.032L83.0437 22.036L82.6737 24.748H79.7615L82.2679 6.74805H85.18L83.6762 17.488L88.2951 12.748H92.1024L87.3284 17.656L90.4195 24.748Z" fill="url(#paint4_linear_25_1122)"/>
<path d="M93.8218 12.748H96.7339L95.063 24.748H92.1509L93.8218 12.748ZM95.5166 11.2C95.0869 11.2 94.7448 11.06 94.4902 10.78C94.2355 10.492 94.1401 10.132 94.2037 9.70005C94.2674 9.27605 94.4623 8.92005 94.7885 8.63205C95.1227 8.34405 95.5046 8.20005 95.9343 8.20005C96.348 8.20005 96.6783 8.34405 96.9249 8.63205C97.1795 8.92005 97.279 9.27605 97.2233 9.70005C97.1596 10.132 96.9647 10.492 96.6385 10.78C96.3202 11.06 95.9462 11.2 95.5166 11.2Z" fill="url(#paint5_linear_25_1122)"/>
<path d="M105.594 15.676H103.279L102.014 24.748H99.1016L100.367 15.676H98.6003L99.0061 12.748H100.772L101.298 8.98005H104.21L103.685 12.748H106L105.594 15.676Z" fill="url(#paint6_linear_25_1122)"/>
<defs>
<linearGradient id="paint0_linear_25_1122" x1="30.9542" y1="18.748" x2="106.543" y2="18.748" gradientUnits="userSpaceOnUse">
<stop stop-color="#205BF1"/>
<stop offset="0.708333" stop-color="white"/>
</linearGradient>
<linearGradient id="paint1_linear_25_1122" x1="30.9542" y1="18.748" x2="106.543" y2="18.748" gradientUnits="userSpaceOnUse">
<stop stop-color="#205BF1"/>
<stop offset="0.708333" stop-color="white"/>
</linearGradient>
<linearGradient id="paint2_linear_25_1122" x1="30.9542" y1="18.748" x2="106.543" y2="18.748" gradientUnits="userSpaceOnUse">
<stop stop-color="#205BF1"/>
<stop offset="0.708333" stop-color="white"/>
</linearGradient>
<linearGradient id="paint3_linear_25_1122" x1="30.9542" y1="18.748" x2="106.543" y2="18.748" gradientUnits="userSpaceOnUse">
<stop stop-color="#205BF1"/>
<stop offset="0.708333" stop-color="white"/>
</linearGradient>
<linearGradient id="paint4_linear_25_1122" x1="30.9542" y1="18.748" x2="106.543" y2="18.748" gradientUnits="userSpaceOnUse">
<stop stop-color="#205BF1"/>
<stop offset="0.708333" stop-color="white"/>
</linearGradient>
<linearGradient id="paint5_linear_25_1122" x1="30.9542" y1="18.748" x2="106.543" y2="18.748" gradientUnits="userSpaceOnUse">
<stop stop-color="#205BF1"/>
<stop offset="0.708333" stop-color="white"/>
</linearGradient>
<linearGradient id="paint6_linear_25_1122" x1="30.9542" y1="18.748" x2="106.543" y2="18.748" gradientUnits="userSpaceOnUse">
<stop stop-color="#205BF1"/>
<stop offset="0.708333" stop-color="white"/>
</linearGradient>
</defs>
</svg>

<svg xmlns="http://www.w3.org/2000/svg" width="116" height="32" fill="none" xmlns:v="https://vecta.io/nano"><path fill-rule="evenodd" d="M20.748 7.298a2.01 2.01 0 0 1-.181 2.823l-4.391 3.88 4.095 1.103c.709.191 1.255.758 1.422 1.477s-.073 1.471-.624 1.957l-7.183 6.347a1.98 1.98 0 0 1-2.807-.182 2.01 2.01 0 0 1 .181-2.822L15.651 18l-4.096-1.103c-.709-.191-1.255-.758-1.422-1.477s.073-1.471.624-1.958l7.183-6.347a1.98 1.98 0 0 1 2.807.182z" fill="#205bf1"/><path d="M45.455 25.252l-1.599-1.848a9.41 9.41 0 0 1-2.339 1.164 8.06 8.06 0 0 1-2.578.42c-1.138 0-2.172-.224-3.103-.672-.931-.456-1.719-1.08-2.363-1.872-.644-.8-1.106-1.728-1.384-2.784s-.334-2.184-.167-3.384.537-2.324 1.11-3.372c.573-1.056 1.293-1.984 2.16-2.784s1.83-1.424 2.888-1.872a8.24 8.24 0 0 1 3.294-.684c1.138 0 2.168.228 3.091.684a6.76 6.76 0 0 1 2.363 1.872c.644.8 1.106 1.728 1.384 2.784.279 1.048.334 2.172.167 3.372-.127.936-.386 1.828-.776 2.676a10.88 10.88 0 0 1-1.432 2.328l1.635 1.908-2.351 2.064zm-6.111-3.192c.462 0 .923-.068 1.385-.204.469-.144.907-.344 1.313-.6l-1.301-1.524 2.351-2.076 1.217 1.44c.31-.416.565-.864.764-1.344s.33-.972.394-1.476c.111-.8.076-1.548-.107-2.244a4.86 4.86 0 0 0-.883-1.836c-.414-.536-.923-.952-1.528-1.248-.597-.304-1.257-.456-1.981-.456-.74 0-1.452.152-2.136.456s-1.309.724-1.874 1.26c-.557.528-1.026 1.14-1.408 1.836-.374.696-.613 1.44-.716 2.232-.111.792-.08 1.54.095 2.244.183.696.481 1.312.895 1.848.414.528.919.944 1.516 1.248.605.296 1.273.444 2.005.444z" fill="url(#A)"/><path d="M49.752 20.308l1.05-7.56h2.912l-.955 6.792c-.056.472.004.904.179 1.296.175.384.438.692.788.924.358.224.768.336 1.229.336a2.74 2.74 0 0 0 1.325-.336c.422-.232.772-.54 1.05-.924a2.8 2.8 0 0 0 .525-1.296l.955-6.792h2.912l-1.659 12h-2.912l.131-1.092a5.56 5.56 0 0 1-1.611 1.032c-.597.248-1.217.372-1.862.372-.867 0-1.631-.212-2.291-.636-.653-.432-1.142-1.004-1.468-1.716-.318-.72-.418-1.52-.298-2.4z" fill="url(#A)"/><path d="M64.124 12.748h2.912l-1.671 12h-2.912l1.671-12zm1.695-1.548c-.43 0-.772-.14-1.026-.42-.255-.288-.35-.648-.286-1.08.064-.424.259-.78.585-1.068.334-.288.716-.432 1.146-.432.414 0 .744.144.991.432.255.288.354.644.298 1.068-.064.432-.259.792-.585 1.08-.318.28-.692.42-1.122.42z" fill="url(#A)"/><path d="M75.867 21.136l2.411 1.428a7.65 7.65 0 0 1-2.315 1.812c-.891.456-1.826.684-2.805.684-1.098 0-2.061-.284-2.888-.852a5.18 5.18 0 0 1-1.838-2.28c-.398-.96-.517-2.02-.358-3.18.119-.88.386-1.7.8-2.46a7.81 7.81 0 0 1 1.575-2.016c.629-.584 1.325-1.04 2.089-1.368.772-.328 1.567-.492 2.387-.492.979 0 1.85.228 2.614.684.772.456 1.377 1.068 1.814 1.836l-2.829 1.416c-.239-.32-.533-.568-.883-.744s-.724-.264-1.122-.264a2.96 2.96 0 0 0-1.623.48c-.501.312-.923.728-1.265 1.248-.342.512-.557 1.072-.644 1.68-.08.6-.024 1.16.167 1.68.199.512.505.924.919 1.236.422.312.919.468 1.492.468a2.98 2.98 0 0 0 1.217-.264 3.88 3.88 0 0 0 1.086-.732z" fill="url(#A)"/><path d="M90.42 24.748h-3.354l-2.065-4.716-1.957 2.004-.37 2.712h-2.912l2.506-18h2.912l-1.504 10.74 4.619-4.74h3.807l-4.774 4.908 3.091 7.092z" fill="url(#A)"/><path d="M93.822 12.748h2.912l-1.671 12h-2.912l1.671-12zm1.695-1.548c-.43 0-.772-.14-1.026-.42-.255-.288-.35-.648-.287-1.08.064-.424.259-.78.585-1.068.334-.288.716-.432 1.146-.432.414 0 .744.144.991.432.255.288.354.644.298 1.068-.064.432-.259.792-.585 1.08-.318.28-.692.42-1.122.42z" fill="url(#A)"/><path d="M105.594 15.676h-2.315l-1.265 9.072h-2.912l1.265-9.072H98.6l.406-2.928h1.766l.526-3.768h2.912l-.525 3.768H106l-.406 2.928z" fill="url(#A)"/><defs><linearGradient id="A" x1="30.954" y1="18.748" x2="106.543" y2="18.748" gradientUnits="userSpaceOnUse"><stop stop-color="#205bf1"/><stop offset=".708" stop-color="#fff"/></linearGradient></defs></svg>
